assets/icons/ic_gold.svg

<svg fill="none" height="16" viewBox="0 0 16 16" width="16" xmlns="http://www.w3.org/2000/svg"><path d="m13.6572 13.6573c3.1243-3.1243 3.1243-8.18979 0-11.31407-3.1243-3.124287-8.18974-3.124287-11.31403 0-3.12428 3.12428-3.12428 8.18977 0 11.31407 3.12429 3.1242 8.18973 3.1242 11.31403 0z" fill="#fee475"/><path d="m13.5125 13.5126c3.0444-3.0444 3.0444-7.98032 0-11.0247-3.0444-3.04439-7.9803-3.04439-11.02469 0-3.044384 3.04438-3.044384 7.9803 0 11.0247 3.04439 3.0444 7.98029 3.0444 11.02469 0z" fill="#fed425"/><g fill="#fff"><path d="m13.528 2.50378-11.02409 11.02362c.74514.741 1.63228 1.3238 2.6082 1.7135l10.12889-10.12892c-.3898-.97575-.9724-1.86284-1.713-2.6082z"/><path d="m15.5996 9.73572-5.86376 5.86378c1.42966-.3277 2.73796-1.0516 3.77516-2.0887 1.0371-1.0371 1.7609-2.3455 2.0886-3.77508z"/><path d="m4.17208 1.21008-2.96175 2.96176c-.330691.58367-.584 1.2079-.753543 1.85696l5.572253-5.572257c-.64906.169543-1.27329.422852-1.85696.753537z"/><path d="m12.501 1.63672-10.86404 10.86408c.12644.1784.25977.3521.40091.519l10.98223-10.98217c-.1669-.14115-.3407-.27402-.5191-.40091z"/><path d="m8.15346 13.7931c3.11964 0 5.64854-2.5289 5.64854-5.64856 0-3.11962-2.5289-5.64857-5.64854-5.64857-3.11962 0-5.64858 2.52895-5.64858 5.64857 0 3.11966 2.52896 5.64856 5.64858 5.64856z"/></g><path d="m11.9944 11.9944c2.2059-2.20592 2.2059-5.7824 0-7.9883-2.20591-2.20591-5.78239-2.2059-7.98829 0-2.20591 2.20591-2.20591 5.78238 0 7.9883 2.2059 2.2059 5.78238 2.2059 7.98829 0z" fill="#feb724"/><path d="m2.65827 8.30685c-.00013-1.09869.32021-2.17356.92177-3.09293.60157-.91937 1.45823-1.64331 2.46504-2.08313 1.00682-.43983 2.12006-.57643 3.20334-.39308s2.08958.6787 2.89558 1.42535c-.5162-.55808-1.1397-1.00621-1.8332-1.31753-.69357-.31132-1.4428-.47942-2.20285-.49424-.76004-.01481-1.51526.12396-2.22039.40802-.70512.28405-1.34564.70753-1.88318 1.24507s-.96102 1.17806-1.24507 1.88318c-.28406.70513-.42283 1.46035-.40802 2.22039.01482.76005.18292 1.50928.49424 2.20285.31132.6935.75945 1.317 1.31753 1.8332-.96896-1.0426-1.50668-2.4138-1.50479-3.83715z" fill="#fb9d12"/><path d="m7.99977.306672c4.36773 0 7.91383 3.499668 7.99613 7.846668 0-.05103.0036-.1016.0036-.1531.0001-1.05054-.2068-2.0908-.6088-3.06139s-.9912-1.8525-1.7341-2.59537c-.7428-.74286-1.6247-1.33215-2.5952-1.734202-.9706-.402054-2.01086-.60900367-3.0614-.60903386-1.05054-.00003018-2.09081.20685986-3.0614.60885786s-1.85249.991228-2.59536 1.734058c-1.50029 1.5002-2.34317903 3.53495-2.34324 5.65662 0 .0515.00275854.10207.00367806.1531.08229644-4.34654 3.62840194-7.846208 7.99609194-7.846208z" fill="#fff"/></svg>

<svg width="16" height="16" viewBox="0 0 16 16" fill="none" xmlns="http://www.w3.org/2000/svg">
<path d="M13.6572 13.6573C16.7815 10.533 16.7815 5.46751 13.6572 2.34323C10.5329 -0.781057 5.46746 -0.781057 2.34317 2.34323C-0.78111 5.46751 -0.78111 10.533 2.34317 13.6573C5.46746 16.7815 10.5329 16.7815 13.6572 13.6573Z" fill="#FEE475"/>
<path d="M13.5125 13.5126C16.5569 10.4682 16.5569 5.53228 13.5125 2.4879C10.4681 -0.55649 5.5322 -0.55649 2.48781 2.4879C-0.556574 5.53228 -0.556574 10.4682 2.48781 13.5126C5.5322 16.557 10.4681 16.557 13.5125 13.5126Z" fill="#FED425"/>
<g style="mix-blend-mode:soft-light">
<path d="M13.528 2.50378L2.50391 13.5274C3.24905 14.2684 4.13619 14.8512 5.11211 15.2409L15.241 5.11198C14.8512 4.13623 14.2686 3.24914 13.528 2.50378Z" fill="white"/>
</g>
<g style="mix-blend-mode:soft-light">
<path d="M15.5996 9.73572L9.73584 15.5995C11.1655 15.2718 12.4738 14.5479 13.511 13.5108C14.5481 12.4737 15.2719 11.1653 15.5996 9.73572Z" fill="white"/>
</g>
<g style="mix-blend-mode:soft-light">
<path d="M4.17208 1.21008L1.21033 4.17184C0.879639 4.75551 0.62633 5.37974 0.456787 6.0288L6.02904 0.456543C5.37998 0.626086 4.75575 0.879395 4.17208 1.21008Z" fill="white"/>
</g>
<g style="mix-blend-mode:soft-light">
<path d="M12.501 1.63672L1.63696 12.5008C1.7634 12.6792 1.89673 12.8529 2.03787 13.0198L13.0201 2.03763C12.8532 1.89648 12.6794 1.76361 12.501 1.63672Z" fill="white"/>
</g>
<g style="mix-blend-mode:soft-light">
<path d="M8.15346 13.7931C11.2731 13.7931 13.802 11.2642 13.802 8.14454C13.802 5.02492 11.2731 2.49597 8.15346 2.49597C5.03384 2.49597 2.50488 5.02492 2.50488 8.14454C2.50488 11.2642 5.03384 13.7931 8.15346 13.7931Z" fill="white"/>
</g>
<path d="M11.9944 11.9944C14.2003 9.78848 14.2003 6.212 11.9944 4.0061C9.78849 1.80019 6.21201 1.8002 4.00611 4.0061C1.8002 6.21201 1.8002 9.78848 4.00611 11.9944C6.21201 14.2003 9.78849 14.2003 11.9944 11.9944Z" fill="#FEB724"/>
<path d="M2.65827 8.30685C2.65814 7.20816 2.97848 6.13329 3.58004 5.21392C4.18161 4.29455 5.03827 3.57061 6.04508 3.13079C7.0519 2.69096 8.16514 2.55436 9.24842 2.73771C10.3317 2.92106 11.338 3.41641 12.144 4.16306C11.6278 3.60498 11.0043 3.15685 10.3108 2.84553C9.61723 2.53421 8.868 2.36611 8.10795 2.35129C7.34791 2.33648 6.59269 2.47525 5.88756 2.75931C5.18244 3.04336 4.54192 3.46684 4.00438 4.00438C3.46684 4.54192 3.04336 5.18244 2.75931 5.88756C2.47525 6.59269 2.33648 7.34791 2.35129 8.10795C2.36611 8.868 2.53421 9.61723 2.84553 10.3108C3.15685 11.0043 3.60498 11.6278 4.16306 12.144C3.1941 11.1014 2.65638 9.7302 2.65827 8.30685Z" fill="#FB9D12"/>
<g style="mix-blend-mode:soft-light">
<path d="M7.99977 0.306672C12.3675 0.306672 15.9136 3.80634 15.9959 8.15334C15.9959 8.10231 15.9995 8.05174 15.9995 8.00024C15.9996 6.9497 15.7927 5.90944 15.3907 4.93885C14.9887 3.96826 14.3995 3.08635 13.6566 2.34348C12.9138 1.60062 12.0319 1.01133 11.0614 0.609278C10.0908 0.207224 9.05054 0.000274332 8 0.000244144C6.94946 0.000213956 5.90919 0.207104 4.9386 0.609102C3.96801 1.0111 3.08611 1.60033 2.34324 2.34316C0.84295 3.84336 6.09676e-05 5.87811 0 7.99978C0 8.05128 0.00275854 8.10185 0.00367806 8.15288C0.0859745 3.80634 3.63208 0.306672 7.99977 0.306672Z" fill="white"/>
</g>
</svg>
